public/assets/icons/discordjs.svg

<svg width="48" height="48" viewBox="0 0 256 256" fill="none"
        xmlns="http://www.w3.org/2000/svg"
        xmlns:xlink="http://www.w3.org/1999/xlink" version="1.1">

        <g transform="translate(0, 0)">
                <svg width="256" height="256" viewBox="0 0 256 256" fill="none"
                        xmlns="http://www.w3.org/2000/svg">
                        <g clip-path="url(#clip0_33_799)">
                                <path d="M196 0H60C26.8629 0 0 26.8629 0 60V196C0 229.137 26.8629 256 60 256H196C229.137 256 256 229.137 256 196V60C256 26.8629 229.137 0 196 0Z" fill="#242938"/>
                                <g clip-path="url(#clip1_33_799)">
                                        <path d="M87.1344 157.687C85.8041 158.254 83.9423 159.02 82.4418 159.493C79.2637 160.494 76.7141 160.899 74.1013 161.296C77.2429 171.369 89.5504 181.26 103.903 180.326C117.432 180.326 126.799 173.657 131.783 163.983C117.65 163.783 97.0626 169.667 87.1344 157.687ZM216.277 159.348C211.336 159.937 207.806 158.943 199.709 161.542C180.107 169.615 160.708 162.768 154.532 161.429C152.504 161.218 151.574 158.251 147.413 163.16L145.384 165.552C154.964 174.979 168.095 180.388 181.693 180.388C200.003 180.388 212.382 171.546 216.495 159.535L216.277 159.348Z" fill="#B75CFF"/>
                                        <path d="M217.316 143.618C206.55 136.141 204.397 141.546 198.999 147.382C199.498 148.659 199.768 150.11 199.768 151.798C199.768 159.678 193.434 164.779 182.156 164.779C172.73 164.779 162.997 160.144 155.737 153.345L147.412 163.16C158.684 163.667 170.095 166.578 181.508 166.128C193.998 165.633 210.498 161.678 216.277 159.349L216.497 159.535C217.497 156.597 218.005 153.513 218 150.408C218 147.952 217.761 145.698 217.316 143.618ZM135.999 143.781C129.898 139.128 124.051 140.712 118.444 147.287V148.412C118.444 157.32 111.246 164.541 102.367 164.541C99.642 164.542 96.9619 163.849 94.5787 162.528C92.1956 161.207 90.1878 159.301 88.7444 156.99C88.7444 156.99 88.0427 157.299 87.1343 157.686C91.3362 162.982 96.4999 165.72 106.747 166.128C115.093 166.458 123.439 164.996 131.786 163.983C134.574 158.575 135.999 152.23 135.999 145.577V143.781Z" fill="#5C6CFF"/>
                                        <path d="M135.999 124.678C130.301 119.665 124.5 118.654 118.445 126.304V147.287C124.316 145.92 130.173 144.531 135.999 143.781V124.678ZM203.936 126.203C195.172 122.367 168.932 126.204 164.293 127.962C166.209 129.092 168.203 130.085 170.259 130.935L184.011 136.962C191.406 140.045 197.026 142.344 198.999 147.382C204.676 146.558 209.571 145.428 212.829 144.678L217.315 143.618C215.595 135.587 210.721 130.195 203.936 126.203Z" fill="#5CFF9D"/>
                                        <path d="M149.888 105.331C150.35 116.474 156.801 123.52 164.326 127.976C170.069 129.109 175.812 130.092 181.556 130.092C189.573 130.092 197.581 128.183 203.943 126.206C201.902 125.018 199.786 123.965 197.607 123.056L184.011 117.338C177.295 114.601 170.982 112.163 168.774 107.206C155.226 100.326 164.314 95.9853 149.891 105.333L149.888 105.331ZM135.999 106.681C130.846 103.126 125.033 104.191 118.443 109.9L118.445 126.315C124.295 125.729 130.147 124.95 135.999 124.678V106.681Z" fill="#FFDB5C"/>
                                        <path d="M155.939 87.327C152.072 91.9747 149.864 97.722 149.864 104.047C149.864 104.48 149.874 104.908 149.891 105.33C156.155 105.268 162.456 105.963 168.774 107.207C168.21 105.92 167.927 104.526 167.943 103.121C167.943 95.7027 174.122 91.2209 183.703 91.2209C192.353 91.2209 199.307 94.4666 205.64 99.8736L212.367 91.5809C192.711 85.5059 175.143 81.6852 155.942 87.3256L155.939 87.327ZM135.999 91.2983C128.748 84.9308 123.182 89.6276 118.443 98.5123V109.9C124.296 108.993 130.146 107.668 135.999 106.68V91.2983Z" fill="#F79454"/>
                                        <path d="M118.443 75.6144V98.5138C124.296 96.538 130.146 93.6159 135.999 91.2969V75.6144H118.443ZM183.7 75.6144C171.805 75.6144 161.902 80.1637 155.941 87.3229C164.425 87.3552 172.965 89.0694 181.506 90.089C193.725 91.5487 205.902 91.5796 212.364 91.5796L214.912 88.4394C207.031 80.5574 195.597 75.6144 183.7 75.6144Z" fill="#FF5C5C"/>
                                        <path d="M38 75.6143V152.961H67.2823C74.9577 152.961 80.8358 151.744 86.2948 148.991C86.285 148.801 86.285 148.607 86.285 148.414C86.285 139.506 93.485 132.288 102.367 132.288C102.63 132.288 102.89 132.293 103.15 132.307C105.936 126.636 107.06 121.012 107.06 113.624C107.06 106.001 105.625 99.3658 102.751 93.6227C99.7681 87.9879 95.458 83.568 89.7148 80.3618C83.9661 77.1597 77.0066 75.6143 68.7181 75.6143H38ZM56.5625 92.1869H67.7239C74.2447 92.1869 79.2158 94.0671 82.5317 97.9343C85.8462 101.8 87.5028 107.103 87.5028 113.954C87.5028 120.915 85.7323 126.332 82.3081 130.309C78.8839 134.397 73.8003 136.385 67.0588 136.385H56.5639L56.5625 92.1869ZM102.413 138.256C101.062 138.228 99.7182 138.471 98.4615 138.969C97.2048 139.467 96.0601 140.211 95.0945 141.157C94.1289 142.103 93.3618 143.232 92.8381 144.479C92.3144 145.725 92.0447 147.063 92.0447 148.415C92.0447 149.767 92.3144 151.105 92.8381 152.352C93.3618 153.598 94.1289 154.727 95.0945 155.673C96.0601 156.619 97.2048 157.363 98.4615 157.862C99.7182 158.36 101.062 158.602 102.413 158.575C105.079 158.53 107.62 157.44 109.489 155.54C111.358 153.639 112.406 151.08 112.406 148.414C112.406 145.749 111.358 143.19 109.489 141.289C107.62 139.389 105.079 138.3 102.413 138.256Z" fill="#5865F2"/>
                                </g>
                        </g>
                        <defs>
                                <clipPath id="clip0_33_799">
                                        <rect width="256" height="256" fill="white"/>
                                </clipPath>
                                <clipPath id="clip1_33_799">
                                        <rect width="180" height="180" fill="white" transform="translate(38 38)"/>
                                </clipPath>
                        </defs>
                </svg>

        </g>

</svg>

<svg xmlns="http://www.w3.org/2000/svg" width="48" height="48" fill="none" viewBox="0 0 256 256"><svg xmlns="http://www.w3.org/2000/svg" width="256" height="256" viewBox="0 0 256 256"><g clip-path="url(#a)"><path fill="#242938" d="M196 0H60C26.863 0 0 26.863 0 60v136c0 33.137 26.863 60 60 60h136c33.137 0 60-26.863 60-60V60c0-33.137-26.863-60-60-60"/><g clip-path="url(#b)"><path fill="#B75CFF" d="M87.134 157.687c-1.33.567-3.192 1.333-4.692 1.806-3.178 1.001-5.728 1.406-8.34 1.803 3.14 10.073 15.448 19.964 29.801 19.03 13.529 0 22.896-6.669 27.88-16.343-14.133-.2-34.72 5.684-44.649-6.296m129.143 1.661c-4.941.589-8.471-.405-16.568 2.194-19.602 8.073-39.001 1.226-45.177-.113-2.028-.211-2.958-3.178-7.119 1.731l-2.029 2.392c9.58 9.427 22.711 14.836 36.309 14.836 18.31 0 30.689-8.842 34.802-20.853z"/><path fill="#5C6CFF" d="M217.316 143.618c-10.766-7.477-12.919-2.072-18.317 3.764.499 1.277.769 2.728.769 4.416 0 7.88-6.334 12.981-17.612 12.981-9.426 0-19.159-4.635-26.419-11.434l-8.325 9.815c11.272.507 22.683 3.418 34.096 2.968 12.49-.495 28.99-4.45 34.769-6.779l.22.186c1-2.938 1.508-6.022 1.503-9.127 0-2.456-.239-4.71-.684-6.79m-81.317.163c-6.101-4.653-11.948-3.069-17.555 3.506v1.125c0 8.908-7.198 16.129-16.077 16.129a16.05 16.05 0 0 1-13.623-7.551s-.701.309-1.61.696c4.202 5.296 9.366 8.034 19.613 8.442 8.346.33 16.692-1.132 25.039-2.145 2.788-5.408 4.213-11.753 4.213-18.406z"/><path fill="#5CFF9D" d="M135.999 124.678c-5.698-5.013-11.499-6.024-17.554 1.626v20.983c5.871-1.367 11.728-2.756 17.554-3.506zm67.937 1.525c-8.764-3.836-35.004.001-39.643 1.759a47 47 0 0 0 5.966 2.973l13.752 6.027c7.395 3.083 13.015 5.382 14.988 10.42 5.677-.824 10.572-1.954 13.83-2.704l4.486-1.06c-1.72-8.031-6.594-13.423-13.379-17.415"/><path fill="#FFDB5C" d="M149.888 105.331c.462 11.143 6.913 18.189 14.438 22.645 5.743 1.133 11.486 2.116 17.23 2.116 8.017 0 16.025-1.909 22.387-3.886a54 54 0 0 0-6.336-3.15l-13.596-5.718c-6.716-2.737-13.029-5.175-15.237-10.132-13.548-6.88-4.46-11.22-18.883-1.873zm-13.889 1.35c-5.153-3.555-10.966-2.49-17.556 3.219l.002 16.415c5.85-.586 11.702-1.365 17.554-1.637z"/><path fill="#F79454" d="M155.939 87.327c-3.867 4.648-6.075 10.395-6.075 16.72q0 .65.027 1.283c6.264-.062 12.565.633 18.883 1.877a9.9 9.9 0 0 1-.831-4.086c0-7.418 6.179-11.9 15.76-11.9 8.65 0 15.604 3.246 21.937 8.653l6.727-8.293c-19.656-6.075-37.224-9.896-56.425-4.255zm-19.94 3.971c-7.251-6.367-12.817-1.67-17.556 7.214V109.9c5.853-.907 11.703-2.232 17.556-3.22z"/><path fill="#FF5C5C" d="M118.443 75.614v22.9c5.853-1.976 11.703-4.898 17.556-7.217V75.614zm65.257 0c-11.895 0-21.798 4.55-27.759 11.709 8.484.032 17.024 1.746 25.565 2.766 12.219 1.46 24.396 1.49 30.858 1.49l2.548-3.14c-7.881-7.882-19.315-12.825-31.212-12.825"/><path fill="#5865F2" d="M38 75.614v77.347h29.282c7.676 0 13.554-1.217 19.013-3.97-.01-.19-.01-.384-.01-.577 0-8.908 7.2-16.126 16.082-16.126q.394-.001.783.019c2.786-5.671 3.91-11.295 3.91-18.683 0-7.623-1.435-14.258-4.309-20.001-2.983-5.635-7.293-10.055-13.036-13.261-5.749-3.202-12.708-4.748-20.997-4.748zm18.563 16.573h11.16c6.522 0 11.493 1.88 14.809 5.747 3.314 3.866 4.97 9.169 4.97 16.02 0 6.961-1.77 12.378-5.194 16.355-3.424 4.088-8.508 6.076-15.25 6.076H56.565zm45.85 46.069a10.16 10.16 0 0 0-9.575 6.223 10.16 10.16 0 0 0 2.257 11.194c.965.946 2.11 1.69 3.367 2.189 1.256.498 2.6.74 3.951.713a10.166 10.166 0 0 0 9.993-10.161 10.16 10.16 0 0 0-9.993-10.158"/></g></g><defs><clipPath id="a"><path fill="#fff" d="M0 0h256v256H0z"/></clipPath><clipPath id="b"><path fill="#fff" d="M38 38h180v180H38z"/></clipPath></defs></svg></svg>
